tenants/businesswise/icons/verified.svg

<svg fill="none" height="24" viewBox="0 0 24 24" width="24" xmlns="http://www.w3.org/2000/svg"><path d="m23 11.5-2.44-2.79.34-3.69-3.61-.82-1.89-3.2-3.4 1.46-3.4-1.46-1.89 3.19-3.61.81.34 3.7-2.44 2.8 2.44 2.79-.34 3.7 3.61.82 1.89 3.19 3.4-1.47 3.4 1.46 1.89-3.19 3.61-.82-.34-3.69zm-12.91 4.72-3.8-3.81 1.48-1.48 2.32 2.33 5.85-5.87 1.48 1.48z" fill="#000"/></svg>

<svg width="24" height="24" viewBox="0 0 24 24" fill="none" xmlns="http://www.w3.org/2000/svg">
<path d="M23 11.5L20.56 8.71L20.9 5.02L17.29 4.2L15.4 1L12 2.46L8.6 1L6.71 4.19L3.1 5L3.44 8.7L1 11.5L3.44 14.29L3.1 17.99L6.71 18.81L8.6 22L12 20.53L15.4 21.99L17.29 18.8L20.9 17.98L20.56 14.29L23 11.5ZM10.09 16.22L6.29 12.41L7.77 10.93L10.09 13.26L15.94 7.39L17.42 8.87L10.09 16.22V16.22Z" fill="black"/>
</svg>
